assets/luts/warm.cube
# Synthetic test LUT generated for video-code (no network fetch).
TITLE "Warm Cinematic"
LUT_3D_SIZE 16
DOMAIN_MIN 0.0 0.0 0.0
DOMAIN_MAX 1.0 1.0 1.0
0.000000 0.000000 0.000000
0.196945 0.000000 0.000000
0.298513 0.000000 0.000000
0.380731 0.000000 0.000000
0.452461 0.000000 0.000000
0.517282 0.000000 0.000000
0.577080 0.000000 0.000000
0.633001 0.000000 0.000000
0.685803 0.000000 0.000000
0.736022 0.000000 0.000000
0.784053 0.000000 0.000000
0.830196 0.000000 0.000000
0.874690 0.000000 0.000000
0.917722 0.000000 0.000000
0.959449 0.000000 0.000000
1.000000 0.000000 0.000000
0.000000 0.100074 0.000000
0.196945 0.100074 0.000000
0.298513 0.100074 0.000000
0.380731 0.100074 0.000000
0.452461 0.100074 0.000000
0.517282 0.100074 0.000000
0.577080 0.100074 0.000000
0.633001 0.100074 0.000000
0.685803 0.100074 0.000000
0.736022 0.100074 0.000000
0.784053 0.100074 0.000000
0.830196 0.100074 0.000000
0.874690 0.100074 0.000000
0.917722 0.100074 0.000000
0.959449 0.100074 0.000000
1.000000 0.100074 0.000000
0.000000 0.180384 0.000000
0.196945 0.180384 0.000000
0.298513 0.180384 0.000000
0.380731 0.180384 0.000000
0.452461 0.180384 0.000000
0.517282 0.180384 0.000000
0.577080 0.180384 0.000000
0.633001 0.180384 0.000000
0.685803 0.180384 0.000000
0.736022 0.180384 0.000000
0.784053 0.180384 0.000000
0.830196 0.180384 0.000000
0.874690 0.180384 0.000000
0.917722 0.180384 0.000000
0.959449 0.180384 0.000000
1.000000 0.180384 0.000000
0.000000 0.254610 0.000000
0.196945 0.254610 0.000000
0.298513 0.254610 0.000000
0.380731 0.254610 0.000000
0.452461 0.254610 0.000000
0.517282 0.254610 0.000000
0.577080 0.254610 0.000000
0.633001 0.254610 0.000000
0.685803 0.254610 0.000000
0.736022 0.254610 0.000000
0.784053 0.254610 0.000000
0.830196 0.254610 0.000000
0.874690 0.254610 0.000000
0.917722 0.254610 0.000000
0.959449 0.254610 0.000000
1.000000 0.254610 0.000000
0.000000 0.325142 0.000000
0.196945 0.325142 0.000000
0.298513 0.325142 0.000000
0.380731 0.325142 0.000000
0.452461 0.325142 0.000000
0.517282 0.325142 0.000000
0.577080 0.325142 0.000000
0.633001 0.325142 0.000000
0.685803 0.325142 0.000000
0.736022 0.325142 0.000000
0.784053 0.325142 0.000000
0.830196 0.325142 0.000000
0.874690 0.325142 0.000000
0.917722 0.325142 0.000000
0.959449 0.325142 0.000000
1.000000 0.325142 0.000000
0.000000 0.393049 0.000000
0.196945 0.393049 0.000000
0.298513 0.393049 0.000000
0.380731 0.393049 0.000000
0.452461 0.393049 0.000000
0.517282 0.393049 0.000000
0.577080 0.393049 0.000000
0.633001 0.393049 0.000000
0.685803 0.393049 0.000000
0.736022 0.393049 0.000000
0.784053 0.393049 0.000000
0.830196 0.393049 0.000000
0.874690 0.393049 0.000000
0.917722 0.393049 0.000000
0.959449 0.393049 0.000000
1.000000 0.393049 0.000000
0.000000 0.458935 0.000000
0.196945 0.458935 0.000000
0.298513 0.458935 0.000000
0.380731 0.458935 0.000000
0.452461 0.458935 0.000000
0.517282 0.458935 0.000000
0.577080 0.458935 0.000000
0.633001 0.458935 0.000000
0.685803 0.458935 0.000000
0.736022 0.458935 0.000000
0.784053 0.458935 0.000000
0.830196 0.458935 0.000000
0.874690 0.458935 0.000000
0.917722 0.458935 0.000000
0.959449 0.458935 0.000000
1.000000 0.458935 0.000000
0.000000 0.523186 0.000000
0.196945 0.523186 0.000000
0.298513 0.523186 0.000000
0.380731 0.523186 0.000000
0.452461 0.523186 0.000000
0.517282 0.523186 0.000000
0.577080 0.523186 0.000000
0.633001 0.523186 0.000000
0.685803 0.523186 0.000000
0.736022 0.523186 0.000000
0.784053 0.523186 0.000000
0.830196 0.523186 0.000000
0.874690 0.523186 0.000000
0.917722 0.523186 0.000000
0.959449 0.523186 0.000000
1.000000 0.523186 0.000000
0.000000 0.586069 0.000000
0.196945 0.586069 0.000000
0.298513 0.586069 0.000000
0.380731 0.586069 0.000000
0.452461 0.586069 0.000000
0.517282 0.586069 0.000000
0.577080 0.586069 0.000000
0.633001 0.586069 0.000000
0.685803 0.586069 0.000000
0.736022 0.586069 0.000000
0.784053 0.586069 0.000000
0.830196 0.586069 0.000000
0.874690 0.586069 0.000000
0.917722 0.586069 0.000000
0.959449 0.586069 0.000000
1.000000 0.586069 0.000000
0.000000 0.647782 0.000000
0.196945 0.647782 0.000000
0.298513 0.647782 0.000000
0.380731 0.647782 0.000000
0.452461 0.647782 0.000000
0.517282 0.647782 0.000000
0.577080 0.647782 0.000000
0.633001 0.647782 0.000000
0.685803 0.647782 0.000000
0.736022 0.647782 0.000000
0.784053 0.647782 0.000000
0.830196 0.647782 0.000000
0.874690 0.647782 0.000000
0.917722 0.647782 0.000000
0.959449 0.647782 0.000000
1.000000 0.647782 0.000000
0.000000 0.708472 0.000000
0.196945 0.708472 0.000000
0.298513 0.708472 0.000000
0.380731 0.708472 0.000000
0.452461 0.708472 0.000000
0.517282 0.708472 0.000000
0.577080 0.708472 0.000000
0.633001 0.708472 0.000000
0.685803 0.708472 0.000000
0.736022 0.708472 0.000000
0.784053 0.708472 0.000000
0.830196 0.708472 0.000000
0.874690 0.708472 0.000000
0.917722 0.708472 0.000000
0.959449 0.708472 0.000000
1.000000 0.708472 0.000000
0.000000 0.768256 0.000000
0.196945 0.768256 0.000000
0.298513 0.768256 0.000000
0.380731 0.768256 0.000000
0.452461 0.768256 0.000000
0.517282 0.768256 0.000000
0.577080 0.768256 0.000000
0.633001 0.768256 0.000000
0.685803 0.768256 0.000000
0.736022 0.768256 0.000000
0.784053 0.768256 0.000000
0.830196 0.768256 0.000000
0.874690 0.768256 0.000000
0.917722 0.768256 0.000000
0.959449 0.768256 0.000000
1.000000 0.768256 0.000000
0.000000 0.827230 0.000000
0.196945 0.827230 0.000000
0.298513 0.827230 0.000000
0.380731 0.827230 0.000000
0.452461 0.827230 0.000000
0.517282 0.827230 0.000000
0.577080 0.827230 0.000000
0.633001 0.827230 0.000000
0.685803 0.827230 0.000000
0.736022 0.827230 0.000000
0.784053 0.827230 0.000000
0.830196 0.827230 0.000000
0.874690 0.827230 0.000000
0.917722 0.827230 0.000000
0.959449 0.827230 0.000000
1.000000 0.827230 0.000000
0.000000 0.885471 0.000000
0.196945 0.885471 0.000000
0.298513 0.885471 0.000000
0.380731 0.885471 0.000000
0.452461 0.885471 0.000000
0.517282 0.885471 0.000000
0.577080 0.885471 0.000000
0.633001 0.885471 0.000000
0.685803 0.885471 0.000000
0.736022 0.885471 0.000000
0.784053 0.885471 0.000000
0.830196 0.885471 0.000000
0.874690 0.885471 0.000000
0.917722 0.885471 0.000000
0.959449 0.885471 0.000000
1.000000 0.885471 0.000000
0.000000 0.943042 0.000000
0.196945 0.943042 0.000000
0.298513 0.943042 0.000000
0.380731 0.943042 0.000000
0.452461 0.943042 0.000000
0.517282 0.943042 0.000000
0.577080 0.943042 0.000000
0.633001 0.943042 0.000000
0.685803 0.943042 0.000000
0.736022 0.943042 0.000000
0.784053 0.943042 0.000000
0.830196 0.943042 0.000000
0.874690 0.943042 0.000000
0.917722 0.943042 0.000000
0.959449 0.943042 0.000000
1.000000 0.943042 0.000000
0.000000 1.000000 0.000000
0.196945 1.000000 0.000000
0.298513 1.000000 0.000000
0.380731 1.000000 0.000000
0.452461 1.000000 0.000000
0.517282 1.000000 0.000000
0.577080 1.000000 0.000000
0.633001 1.000000 0.000000
0.685803 1.000000 0.000000
0.736022 1.000000 0.000000
0.784053 1.000000 0.000000
0.830196 1.000000 0.000000
0.874690 1.000000 0.000000
0.917722 1.000000 0.000000
0.959449 1.000000 0.000000
1.000000 1.000000 0.000000
0.000000 0.000000 0.013130
0.196945 0.000000 0.013130
0.298513 0.000000 0.013130
0.380731 0.000000 0.013130
0.452461 0.000000 0.013130
0.517282 0.000000 0.013130
0.577080 0.000000 0.013130
0.633001 0.000000 0.013130
0.685803 0.000000 0.013130
0.736022 0.000000 0.013130
0.784053 0.000000 0.013130
0.830196 0.000000 0.013130
0.874690 0.000000 0.013130
0.917722 0.000000 0.013130
0.959449 0.000000 0.013130
1.000000 0.000000 0.013130
0.000000 0.100074 0.013130
0.196945 0.100074 0.013130
0.298513 0.100074 0.013130
0.380731 0.100074 0.013130
0.452461 0.100074 0.013130
0.517282 0.100074 0.013130
0.577080 0.100074 0.013130
0.633001 0.100074 0.013130
0.685803 0.100074 0.013130
0.736022 0.100074 0.013130
0.784053 0.100074 0.013130
0.830196 0.100074 0.013130
0.874690 0.100074 0.013130
0.917722 0.100074 0.013130
0.959449 0.100074 0.013130
1.000000 0.100074 0.013130
0.000000 0.180384 0.013130
0.196945 0.180384 0.013130
0.298513 0.180384 0.013130
0.380731 0.180384 0.013130
0.452461 0.180384 0.013130
0.517282 0.180384 0.013130
0.577080 0.180384 0.013130
0.633001 0.180384 0.013130
0.685803 0.180384 0.013130
0.736022 0.180384 0.013130
0.784053 0.180384 0.013130
0.830196 0.180384 0.013130
0.874690 0.180384 0.013130
0.917722 0.180384 0.013130
0.959449 0.180384 0.013130
1.000000 0.180384 0.013130
0.000000 0.254610 0.013130
0.196945 0.254610 0.013130
0.298513 0.254610 0.013130
0.380731 0.254610 0.013130
0.452461 0.254610 0.013130
0.517282 0.254610 0.013130
0.577080 0.254610 0.013130
0.633001 0.254610 0.013130
0.685803 0.254610 0.013130
0.736022 0.254610 0.013130
0.784053 0.254610 0.013130
0.830196 0.254610 0.013130
0.874690 0.254610 0.013130
0.917722 0.254610 0.013130
0.959449 0.254610 0.013130
1.000000 0.254610 0.013130
0.000000 0.325142 0.013130
0.196945 0.325142 0.013130
0.298513 0.325142 0.013130
0.380731 0.325142 0.013130
0.452461 0.325142 0.013130
0.517282 0.325142 0.013130
0.577080 0.325142 0.013130
0.633001 0.325142 0.013130
0.685803 0.325142 0.013130
0.736022 0.325142 0.013130
0.784053 0.325142 0.013130
0.830196 0.325142 0.013130
0.874690 0.325142 0.013130
0.917722 0.325142 0.013130
0.959449 0.325142 0.013130
1.000000 0.325142 0.013130
0.000000 0.393049 0.013130
0.196945 0.393049 0.013130
0.298513 0.393049 0.013130
0.380731 0.393049 0.013130
0.452461 0.393049 0.013130
0.517282 0.393049 0.013130
0.577080 0.393049 0.013130
0.633001 0.393049 0.013130
0.685803 0.393049 0.013130
0.736022 0.393049 0.013130
0.784053 0.393049 0.013130
0.830196 0.393049 0.013130
0.874690 0.393049 0.013130
0.917722 0.393049 0.013130
0.959449 0.393049 0.013130
1.000000 0.393049 0.013130
0.000000 0.458935 0.013130
0.196945 0.458935 0.013130
0.298513 0.458935 0.013130
0.380731 0.458935 0.013130
0.452461 0.458935 0.013130
0.517282 0.458935 0.013130
0.577080 0.458935 0.013130
0.633001 0.458935 0.013130
0.685803 0.458935 0.013130
0.736022 0.458935 0.013130
0.784053 0.458935 0.013130
0.830196 0.458935 0.013130
0.874690 0.458935 0.013130
0.917722 0.458935 0.013130
0.959449 0.458935 0.013130
1.000000 0.458935 0.013130
0.000000 0.523186 0.013130
0.196945 0.523186 0.013130
0.298513 0.523186 0.013130
0.380731 0.523186 0.013130
0.452461 0.523186 0.013130
0.517282 0.523186 0.013130
0.577080 0.523186 0.013130
0.633001 0.523186 0.013130
0.685803 0.523186 0.013130
0.736022 0.523186 0.013130
0.784053 0.523186 0.013130
0.830196 0.523186 0.013130
0.874690 0.523186 0.013130
0.917722 0.523186 0.013130
0.959449 0.523186 0.013130
1.000000 0.523186 0.013130
0.000000 0.586069 0.013130
0.196945 0.586069 0.013130
0.298513 0.586069 0.013130
0.380731 0.586069 0.013130
0.452461 0.586069 0.013130
0.517282 0.586069 0.013130
0.577080 0.586069 0.013130
0.633001 0.586069 0.013130
0.685803 0.586069 0.013130
0.736022 0.586069 0.013130
0.784053 0.586069 0.013130
0.830196 0.586069 0.013130
0.874690 0.586069 0.013130
0.917722 0.586069 0.013130
0.959449 0.586069 0.013130
1.000000 0.586069 0.013130
0.000000 0.647782 0.013130
0.196945 0.647782 0.013130
0.298513 0.647782 0.013130
0.380731 0.647782 0.013130
0.452461 0.647782 0.013130
0.517282 0.647782 0.013130
0.577080 0.647782 0.013130
0.633001 0.647782 0.013130
0.685803 0.647782 0.013130
0.736022 0.647782 0.013130
0.784053 0.647782 0.013130
0.830196 0.647782 0.013130
0.874690 0.647782 0.013130
0.917722 0.647782 0.013130
0.959449 0.647782 0.013130
1.000000 0.647782 0.013130
0.000000 0.708472 0.013130
0.196945 0.708472 0.013130
0.298513 0.708472 0.013130
0.380731 0.708472 0.013130
0.452461 0.708472 0.013130
0.517282 0.708472 0.013130
0.577080 0.708472 0.013130
0.633001 0.708472 0.013130
0.685803 0.708472 0.013130
0.736022 0.708472 0.013130
0.784053 0.708472 0.013130
0.830196 0.708472 0.013130
0.874690 0.708472 0.013130
0.917722 0.708472 0.013130
0.959449 0.708472 0.013130
1.000000 0.708472 0.013130
0.000000 0.768256 0.013130
0.196945 0.768256 0.013130
0.298513 0.768256 0.013130
0.380731 0.768256 0.013130
0.452461 0.768256 0.013130
0.517282 0.768256 0.013130
0.577080 0.768256 0.013130
0.633001 0.768256 0.013130
0.685803 0.768256 0.013130
0.736022 0.768256 0.013130
0.784053 0.768256 0.013130
0.830196 0.768256 0.013130
0.874690 0.768256 0.013130
0.917722 0.768256 0.013130
0.959449 0.768256 0.013130
1.000000 0.768256 0.013130
0.000000 0.827230 0.013130
0.196945 0.827230 0.013130
0.298513 0.827230 0.013130
0.380731 0.827230 0.013130
0.452461 0.827230 0.013130
0.517282 0.827230 0.013130
0.577080 0.827230 0.013130
0.633001 0.827230 0.013130
0.685803 0.827230 0.013130
0.736022 0.827230 0.013130
0.784053 0.827230 0.013130
0.830196 0.827230 0.013130
0.874690 0.827230 0.013130
0.917722 0.827230 0.013130
0.959449 0.827230 0.013130
1.000000 0.827230 0.013130
0.000000 0.885471 0.013130
0.196945 0.885471 0.013130
0.298513 0.885471 0.013130
0.380731 0.885471 0.013130
0.452461 0.885471 0.013130
0.517282 0.885471 0.013130
0.577080 0.885471 0.013130
0.633001 0.885471 0.013130
0.685803 0.885471 0.013130
0.736022 0.885471 0.013130
0.784053 0.885471 0.013130
0.830196 0.885471 0.013130
0.874690 0.885471 0.013130
0.917722 0.885471 0.013130
0.959449 0.885471 0.013130
1.000000 0.885471 0.013130
0.000000 0.943042 0.013130
0.196945 0.943042 0.013130
0.298513 0.943042 0.013130
0.380731 0.943042 0.013130
0.452461 0.943042 0.013130
0.517282 0.943042 0.013130
0.577080 0.943042 0.013130
0.633001 0.943042 0.013130
0.685803 0.943042 0.013130
0.736022 0.943042 0.013130
0.784053 0.943042 0.013130
0.830196 0.943042 0.013130
0.874690 0.943042 0.013130
0.917722 0.943042 0.013130
0.959449 0.943042 0.013130
1.000000 0.943042 0.013130
0.000000 1.000000 0.013130
0.196945 1.000000 0.013130
0.298513 1.000000 0.013130
0.380731 1.000000 0.013130
0.452461 1.000000 0.013130
0.517282 1.000000 0.013130
0.577080 1.000000 0.013130
0.633001 1.000000 0.013130
0.685803 1.000000 0.013130
0.736022 1.000000 0.013130
0.784053 1.000000 0.013130
0.830196 1.000000 0.013130
0.874690 1.000000 0.013130
0.917722 1.000000 0.013130
0.959449 1.000000 0.013130
1.000000 1.000000 0.013130
0.000000 0.000000 0.039802
0.196945 0.000000 0.039802
0.298513 0.000000 0.039802
0.380731 0.000000 0.039802
0.452461 0.000000 0.039802
0.517282 0.000000 0.039802
0.577080 0.000000 0.039802
0.633001 0.000000 0.039802
0.685803 0.000000 0.039802
0.736022 0.000000 0.039802
0.784053 0.000000 0.039802
0.830196 0.000000 0.039802
0.874690 0.000000 0.039802
0.917722 0.000000 0.039802
0.959449 0.000000 0.039802
1.000000 0.000000 0.039802
0.000000 0.100074 0.039802
0.196945 0.100074 0.039802
0.298513 0.100074 0.039802
0.380731 0.100074 0.039802
0.452461 0.100074 0.039802
0.517282 0.100074 0.039802
0.577080 0.100074 0.039802
0.633001 0.100074 0.039802
0.685803 0.100074 0.039802
0.736022 0.100074 0.039802
0.784053 0.100074 0.039802
0.830196 0.100074 0.039802
0.874690 0.100074 0.039802
0.917722 0.100074 0.039802
0.959449 0.100074 0.039802
1.000000 0.100074 0.039802
0.000000 0.180384 0.039802
0.196945 0.180384 0.039802
0.298513 0.180384 0.039802
0.380731 0.180384 0.039802
0.452461 0.180384 0.039802
0.517282 0.180384 0.039802
0.577080 0.180384 0.039802
0.633001 0.180384 0.039802
0.685803 0.180384 0.039802
0.736022 0.180384 0.039802
0.784053 0.180384 0.039802
0.830196 0.180384 0.039802
0.874690 0.180384 0.039802
0.917722 0.180384 0.039802
0.959449 0.180384 0.039802
1.000000 0.180384 0.039802
0.000000 0.254610 0.039802
0.196945 0.254610 0.039802
0.298513 0.254610 0.039802
0.380731 0.254610 0.039802
0.452461 0.254610 0.039802
0.517282 0.254610 0.039802
0.577080 0.254610 0.039802
0.633001 0.254610 0.039802
0.685803 0.254610 0.039802
0.736022 0.254610 0.039802
0.784053 0.254610 0.039802
0.830196 0.254610 0.039802
0.874690 0.254610 0.039802
0.917722 0.254610 0.039802
0.959449 0.254610 0.039802
1.000000 0.254610 0.039802
0.000000 0.325142 0.039802
0.196945 0.325142 0.039802
0.298513 0.325142 0.039802
0.380731 0.325142 0.039802
0.452461 0.325142 0.039802
0.517282 0.325142 0.039802
0.577080 0.325142 0.039802
0.633001 0.325142 0.039802
0.685803 0.325142 0.039802
0.736022 0.325142 0.039802
0.784053 0.325142 0.039802
0.830196 0.325142 0.039802
0.874690 0.325142 0.039802
0.917722 0.325142 0.039802
0.959449 0.325142 0.039802
1.000000 0.325142 0.039802
0.000000 0.393049 0.039802
0.196945 0.393049 0.039802
0.298513 0.393049 0.039802
0.380731 0.393049 0.039802
0.452461 0.393049 0.039802
0.517282 0.393049 0.039802
0.577080 0.393049 0.039802
0.633001 0.393049 0.039802
0.685803 0.393049 0.039802
0.736022 0.393049 0.039802
0.784053 0.393049 0.039802
0.830196 0.393049 0.039802
0.874690 0.393049 0.039802
0.917722 0.393049 0.039802
0.959449 0.393049 0.039802
1.000000 0.393049 0.039802
0.000000 0.458935 0.039802
0.196945 0.458935 0.039802
0.298513 0.458935 0.039802
0.380731 0.458935 0.039802
0.452461 0.458935 0.039802
0.517282 0.458935 0.039802
0.577080 0.458935 0.039802
0.633001 0.458935 0.039802
0.685803 0.458935 0.039802
0.736022 0.458935 0.039802
0.784053 0.458935 0.039802
0.830196 0.458935 0.039802
0.874690 0.458935 0.039802
0.917722 0.458935 0.039802
0.959449 0.458935 0.039802
1.000000 0.458935 0.039802
0.000000 0.523186 0.039802
0.196945 0.523186 0.039802
0.298513 0.523186 0.039802
0.380731 0.523186 0.039802
0.452461 0.523186 0.039802
0.517282 0.523186 0.039802
0.577080 0.523186 0.039802
0.633001 0.523186 0.039802
0.685803 0.523186 0.039802
0.736022 0.523186 0.039802
0.784053 0.523186 0.039802
0.830196 0.523186 0.039802
0.874690 0.523186 0.039802
0.917722 0.523186 0.039802
0.959449 0.523186 0.039802
1.000000 0.523186 0.039802
0.000000 0.586069 0.039802
0.196945 0.586069 0.039802
0.298513 0.586069 0.039802
0.380731 0.586069 0.039802
0.452461 0.586069 0.039802
0.517282 0.586069 0.039802
0.577080 0.586069 0.039802
0.633001 0.586069 0.039802
0.685803 0.586069 0.039802
0.736022 0.586069 0.039802
0.784053 0.586069 0.039802
0.830196 0.586069 0.039802
0.874690 0.586069 0.039802
0.917722 0.586069 0.039802
0.959449 0.586069 0.039802
1.000000 0.586069 0.039802
0.000000 0.647782 0.039802
0.196945 0.647782 0.039802
0.298513 0.647782 0.039802
0.380731 0.647782 0.039802
0.452461 0.647782 0.039802
0.517282 0.647782 0.039802
0.577080 0.647782 0.039802
0.633001 0.647782 0.039802
0.685803 0.647782 0.039802
0.736022 0.647782 0.039802
0.784053 0.647782 0.039802
0.830196 0.647782 0.039802
0.874690 0.647782 0.039802
0.917722 0.647782 0.039802
0.959449 0.647782 0.039802
1.000000 0.647782 0.039802
0.000000 0.708472 0.039802
0.196945 0.708472 0.039802
0.298513 0.708472 0.039802
0.380731 0.708472 0.039802
0.452461 0.708472 0.039802
0.517282 0.708472 0.039802
0.577080 0.708472 0.039802
0.633001 0.708472 0.039802
0.685803 0.708472 0.039802
0.736022 0.708472 0.039802
0.784053 0.708472 0.039802
0.830196 0.708472 0.039802
0.874690 0.708472 0.039802
0.917722 0.708472 0.039802
0.959449 0.708472 0.039802
1.000000 0.708472 0.039802
0.000000 0.768256 0.039802
0.196945 0.768256 0.039802
0.298513 0.768256 0.039802
0.380731 0.768256 0.039802
0.452461 0.768256 0.039802
0.517282 0.768256 0.039802
0.577080 0.768256 0.039802
0.633001 0.768256 0.039802
0.685803 0.768256 0.039802
0.736022 0.768256 0.039802
0.784053 0.768256 0.039802
0.830196 0.768256 0.039802
0.874690 0.768256 0.039802
0.917722 0.768256 0.039802
0.959449 0.768256 0.039802
1.000000 0.768256 0.039802
0.000000 0.827230 0.039802
0.196945 0.827230 0.039802
0.298513 0.827230 0.039802
0.380731 0.827230 0.039802
0.452461 0.827230 0.039802
0.517282 0.827230 0.039802
0.577080 0.827230 0.039802
0.633001 0.827230 0.039802
0.685803 0.827230 0.039802
0.736022 0.827230 0.039802
0.784053 0.827230 0.039802
0.830196 0.827230 0.039802
0.874690 0.827230 0.039802
0.917722 0.827230 0.039802
0.959449 0.827230 0.039802
1.000000 0.827230 0.039802
0.000000 0.885471 0.039802
0.196945 0.885471 0.039802
0.298513 0.885471 0.039802
0.380731 0.885471 0.039802
0.452461 0.885471 0.039802
0.517282 0.885471 0.039802
0.577080 0.885471 0.039802
0.633001 0.885471 0.039802
0.685803 0.885471 0.039802
0.736022 0.885471 0.039802
0.784053 0.885471 0.039802
0.830196 0.885471 0.039802
0.874690 0.885471 0.039802
0.917722 0.885471 0.039802
0.959449 0.885471 0.039802
1.000000 0.885471 0.039802
0.000000 0.943042 0.039802
0.196945 0.943042 0.039802
0.298513 0.943042 0.039802
0.380731 0.943042 0.039802
0.452461 0.943042 0.039802
0.517282 0.943042 0.039802
0.577080 0.943042 0.039802
0.633001 0.943042 0.039802
0.685803 0.943042 0.039802
0.736022 0.943042 0.039802
0.784053 0.943042 0.039802
0.830196 0.943042 0.039802
0.874690 0.943042 0.039802
0.917722 0.943042 0.039802
0.959449 0.943042 0.039802
1.000000 0.943042 0.039802
0.000000 1.000000 0.039802
0.196945 1.000000 0.039802
0.298513 1.000000 0.039802
0.380731 1.000000 0.039802
0.452461 1.000000 0.039802
0.517282 1.000000 0.039802
0.577080 1.000000 0.039802
0.633001 1.000000 0.039802
0.685803 1.000000 0.039802
0.736022 1.000000 0.039802
0.784053 1.000000 0.039802
0.830196 1.000000 0.039802
0.874690 1.000000 0.039802
0.917722 1.000000 0.039802
0.959449 1.000000 0.039802
1.000000 1.000000 0.039802
0.000000 0.000000 0.076146
0.196945 0.000000 0.076146
0.298513 0.000000 0.076146
0.380731 0.000000 0.076146
0.452461 0.000000 0.076146
0.517282 0.000000 0.076146
0.577080 0.000000 0.076146
0.633001 0.000000 0.076146
0.685803 0.000000 0.076146
0.736022 0.000000 0.076146
0.784053 0.000000 0.076146
0.830196 0.000000 0.076146
0.874690 0.000000 0.076146
0.917722 0.000000 0.076146
0.959449 0.000000 0.076146
1.000000 0.000000 0.076146
0.000000 0.100074 0.076146
0.196945 0.100074 0.076146
0.298513 0.100074 0.076146
0.380731 0.100074 0.076146
0.452461 0.100074 0.076146
0.517282 0.100074 0.076146
0.577080 0.100074 0.076146
0.633001 0.100074 0.076146
0.685803 0.100074 0.076146
0.736022 0.100074 0.076146
0.784053 0.100074 0.076146
0.830196 0.100074 0.076146
0.874690 0.100074 0.076146
0.917722 0.100074 0.076146
0.959449 0.100074 0.076146
1.000000 0.100074 0.076146
0.000000 0.180384 0.076146
0.196945 0.180384 0.076146
0.298513 0.180384 0.076146
0.380731 0.180384 0.076146
0.452461 0.180384 0.076146
0.517282 0.180384 0.076146
0.577080 0.180384 0.076146
0.633001 0.180384 0.076146
0.685803 0.180384 0.076146
0.736022 0.180384 0.076146
0.784053 0.180384 0.076146
0.830196 0.180384 0.076146
0.874690 0.180384 0.076146
0.917722 0.180384 0.076146
0.959449 0.180384 0.076146
1.000000 0.180384 0.076146
0.000000 0.254610 0.076146
0.196945 0.254610 0.076146
0.298513 0.254610 0.076146
0.380731 0.254610 0.076146
0.452461 0.254610 0.076146
0.517282 0.254610 0.076146
0.577080 0.254610 0.076146
0.633001 0.254610 0.076146
0.685803 0.254610 0.076146
0.736022 0.254610 0.076146
0.784053 0.254610 0.076146
0.830196 0.254610 0.076146
0.874690 0.254610 0.076146
0.917722 0.254610 0.076146
0.959449 0.254610 0.076146
1.000000 0.254610 0.076146
0.000000 0.325142 0.076146
0.196945 0.325142 0.076146
0.298513 0.325142 0.076146
0.380731 0.325142 0.076146
0.452461 0.325142 0.076146
0.517282 0.325142 0.076146
0.577080 0.325142 0.076146
0.633001 0.325142 0.076146
0.685803 0.325142 0.076146
0.736022 0.325142 0.076146
0.784053 0.325142 0.076146
0.830196 0.325142 0.076146
0.874690 0.325142 0.076146
0.917722 0.325142 0.076146
0.959449 0.325142 0.076146
1.000000 0.325142 0.076146
0.000000 0.393049 0.076146
0.196945 0.393049 0.076146
0.298513 0.393049 0.076146
0.380731 0.393049 0.076146
0.452461 0.393049 0.076146
0.517282 0.393049 0.076146
0.577080 0.393049 0.076146
0.633001 0.393049 0.076146
0.685803 0.393049 0.076146
0.736022 0.393049 0.076146
0.784053 0.393049 0.076146
0.830196 0.393049 0.076146
0.874690 0.393049 0.076146
0.917722 0.393049 0.076146
0.959449 0.393049 0.076146
1.000000 0.393049 0.076146
0.000000 0.458935 0.076146
0.196945 0.458935 0.076146
0.298513 0.458935 0.076146
0.380731 0.458935 0.076146
0.452461 0.458935 0.076146
0.517282 0.458935 0.076146
0.577080 0.458935 0.076146
0.633001 0.458935 0.076146
0.685803 0.458935 0.076146
0.736022 0.458935 0.076146
0.784053 0.458935 0.076146
0.830196 0.458935 0.076146
0.874690 0.458935 0.076146
0.917722 0.458935 0.076146
0.959449 0.458935 0.076146
1.000000 0.458935 0.076146
0.000000 0.523186 0.076146
0.196945 0.523186 0.076146
0.298513 0.523186 0.076146
