assets/luts/warm.cube
# Synthetic test LUT generated for video-code (no network fetch).
TITLE "Warm Cinematic"
LUT_3D_SIZE 6
DOMAIN_MIN 0.0 0.0 0.0
DOMAIN_MAX 1.0 1.0 1.0
0.000000 0.000000 0.000000
0.380731 0.000000 0.000000
0.577080 0.000000 0.000000
0.736022 0.000000 0.000000
0.874690 0.000000 0.000000
1.000000 0.000000 0.000000
0.000000 0.254610 0.000000
0.380731 0.254610 0.000000
0.577080 0.254610 0.000000
0.736022 0.254610 0.000000
0.874690 0.254610 0.000000
1.000000 0.254610 0.000000
0.000000 0.458935 0.000000
0.380731 0.458935 0.000000
0.577080 0.458935 0.000000
0.736022 0.458935 0.000000
0.874690 0.458935 0.000000
1.000000 0.458935 0.000000
0.000000 0.647782 0.000000
0.380731 0.647782 0.000000
0.577080 0.647782 0.000000
0.736022 0.647782 0.000000
0.874690 0.647782 0.000000
1.000000 0.647782 0.000000
0.000000 0.827230 0.000000
0.380731 0.827230 0.000000
0.577080 0.827230 0.000000
0.736022 0.827230 0.000000
0.874690 0.827230 0.000000
1.000000 0.827230 0.000000
0.000000 1.000000 0.000000
0.380731 1.000000 0.000000
0.577080 1.000000 0.000000
0.736022 1.000000 0.000000
0.874690 1.000000 0.000000
1.000000 1.000000 0.000000
0.000000 0.000000 0.076146
0.380731 0.000000 0.076146
0.577080 0.000000 0.076146
0.736022 0.000000 0.076146
0.874690 0.000000 0.076146
1.000000 0.000000 0.076146
0.000000 0.254610 0.076146
0.380731 0.254610 0.076146
0.577080 0.254610 0.076146
0.736022 0.254610 0.076146
0.874690 0.254610 0.076146
1.000000 0.254610 0.076146
0.000000 0.458935 0.076146
0.380731 0.458935 0.076146
0.577080 0.458935 0.076146
0.736022 0.458935 0.076146
0.874690 0.458935 0.076146
1.000000 0.458935 0.076146
0.000000 0.647782 0.076146
0.380731 0.647782 0.076146
0.577080 0.647782 0.076146
0.736022 0.647782 0.076146
0.874690 0.647782 0.076146
1.000000 0.647782 0.076146
0.000000 0.827230 0.076146
0.380731 0.827230 0.076146
0.577080 0.827230 0.076146
0.736022 0.827230 0.076146
0.874690 0.827230 0.076146
1.000000 0.827230 0.076146
0.000000 1.000000 0.076146
0.380731 1.000000 0.076146
0.577080 1.000000 0.076146
0.736022 1.000000 0.076146
0.874690 1.000000 0.076146
1.000000 1.000000 0.076146
0.000000 0.000000 0.230832
0.380731 0.000000 0.230832
0.577080 0.000000 0.230832
0.736022 0.000000 0.230832
0.874690 0.000000 0.230832
1.000000 0.000000 0.230832
0.000000 0.254610 0.230832
0.380731 0.254610 0.230832
0.577080 0.254610 0.230832
0.736022 0.254610 0.230832
0.874690 0.254610 0.230832
1.000000 0.254610 0.230832
0.000000 0.458935 0.230832
0.380731 0.458935 0.230832
0.577080 0.458935 0.230832
0.736022 0.458935 0.230832
0.874690 0.458935 0.230832
1.000000 0.458935 0.230832
0.000000 0.647782 0.230832
0.380731 0.647782 0.230832
0.577080 0.647782 0.230832
0.736022 0.647782 0.230832
0.874690 0.647782 0.230832
1.000000 0.647782 0.230832
0.000000 0.827230 0.230832
0.380731 0.827230 0.230832
0.577080 0.827230 0.230832
0.736022 0.827230 0.230832
0.874690 0.827230 0.230832
1.000000 0.827230 0.230832
0.000000 1.000000 0.230832
0.380731 1.000000 0.230832
0.577080 1.000000 0.230832
0.736022 1.000000 0.230832
0.874690 1.000000 0.230832
1.000000 1.000000 0.230832
0.000000 0.000000 0.441613
0.380731 0.000000 0.441613
0.577080 0.000000 0.441613
0.736022 0.000000 0.441613
0.874690 0.000000 0.441613
1.000000 0.000000 0.441613
0.000000 0.254610 0.441613
0.380731 0.254610 0.441613
0.577080 0.254610 0.441613
0.736022 0.254610 0.441613
0.874690 0.254610 0.441613
1.000000 0.254610 0.441613
0.000000 0.458935 0.441613
0.380731 0.458935 0.441613
0.577080 0.458935 0.441613
0.736022 0.458935 0.441613
0.874690 0.458935 0.441613
1.000000 0.458935 0.441613
0.000000 0.647782 0.441613
0.380731 0.647782 0.441613
0.577080 0.647782 0.441613
0.736022 0.647782 0.441613
0.874690 0.647782 0.441613
1.000000 0.647782 0.441613
0.000000 0.827230 0.441613
0.380731 0.827230 0.441613
0.577080 0.827230 0.441613
0.736022 0.827230 0.441613
0.874690 0.827230 0.441613
1.000000 0.827230 0.441613
0.000000 1.000000 0.441613
0.380731 1.000000 0.441613
0.577080 1.000000 0.441613
0.736022 1.000000 0.441613
0.874690 1.000000 0.441613
1.000000 1.000000 0.441613
0.000000 0.000000 0.699752
0.380731 0.000000 0.699752
0.577080 0.000000 0.699752
0.736022 0.000000 0.699752
0.874690 0.000000 0.699752
1.000000 0.000000 0.699752
0.000000 0.254610 0.699752
0.380731 0.254610 0.699752
0.577080 0.254610 0.699752
0.736022 0.254610 0.699752
0.874690 0.254610 0.699752
1.000000 0.254610 0.699752
0.000000 0.458935 0.699752
0.380731 0.458935 0.699752
0.577080 0.458935 0.699752
0.736022 0.458935 0.699752
0.874690 0.458935 0.699752
1.000000 0.458935 0.699752
0.000000 0.647782 0.699752
0.380731 0.647782 0.699752
0.577080 0.647782 0.699752
0.736022 0.647782 0.699752
0.874690 0.647782 0.699752
1.000000 0.647782 0.699752
0.000000 0.827230 0.699752
0.380731 0.827230 0.699752
0.577080 0.827230 0.699752
0.736022 0.827230 0.699752
0.874690 0.827230 0.699752
1.000000 0.827230 0.699752
0.000000 1.000000 0.699752
0.380731 1.000000 0.699752
0.577080 1.000000 0.699752
0.736022 1.000000 0.699752
0.874690 1.000000 0.699752
1.000000 1.000000 0.699752
0.000000 0.000000 1.000000
0.380731 0.000000 1.000000
0.577080 0.000000 1.000000
0.736022 0.000000 1.000000
0.874690 0.000000 1.000000
1.000000 0.000000 1.000000
0.000000 0.254610 1.000000
0.380731 0.254610 1.000000
0.577080 0.254610 1.000000
0.736022 0.254610 1.000000
0.874690 0.254610 1.000000
1.000000 0.254610 1.000000
0.000000 0.458935 1.000000
0.380731 0.458935 1.000000
0.577080 0.458935 1.000000
0.736022 0.458935 1.000000
0.874690 0.458935 1.000000
1.000000 0.458935 1.000000
0.000000 0.647782 1.000000
0.380731 0.647782 1.000000
0.577080 0.647782 1.000000
0.736022 0.647782 1.000000
0.874690 0.647782 1.000000
1.000000 0.647782 1.000000
0.000000 0.827230 1.000000
0.380731 0.827230 1.000000
0.577080 0.827230 1.000000
0.736022 0.827230 1.000000
0.874690 0.827230 1.000000
1.000000 0.827230 1.000000
0.000000 1.000000 1.000000
0.380731 1.000000 1.000000
0.577080 1.000000 1.000000
0.736022 1.000000 1.000000
0.874690 1.000000 1.000000
1.000000 1.000000 1.000000
